svg/color/chx.svg

<?xml version="1.0" encoding="UTF-8" ?>
<!DOCTYPE svg PUBLIC "-//W3C//DTD SVG 1.1//EN" "http://www.w3.org/Graphics/SVG/1.1/DTD/svg11.dtd">
<svg width="250pt" height="250pt" viewBox="0 0 250 250" version="1.1" xmlns="http://www.w3.org/2000/svg">
<g id="#ffffffff">
<path fill="#ffffff" opacity="1.00" d=" M 0.00 0.00 L 250.00 0.00 L 250.00 250.00 L 0.00 250.00 L 0.00 0.00 M 55.63 75.62 C 45.80 89.58 39.80 106.61 40.19 123.80 C 50.88 130.05 61.37 136.67 72.04 142.96 C 73.15 143.38 74.43 144.39 75.64 143.77 C 77.26 141.95 78.36 139.75 79.53 137.63 C 84.48 128.00 90.19 118.79 95.05 109.11 C 97.38 104.41 100.43 99.52 105.60 97.61 C 109.96 95.56 115.07 96.57 119.01 99.08 C 129.10 104.98 138.97 111.24 149.19 116.92 C 154.32 110.19 157.68 102.33 162.12 95.15 C 167.05 87.29 171.35 79.07 175.97 71.03 C 177.93 67.81 179.79 64.50 181.24 61.01 C 163.53 44.37 137.90 37.10 113.98 40.39 C 90.72 43.20 69.09 56.49 55.63 75.62 M 192.40 137.41 C 185.12 144.45 177.52 151.17 170.47 158.46 C 166.95 162.06 162.17 164.85 156.98 164.59 C 151.28 164.67 146.36 161.31 141.94 158.08 C 134.41 152.55 126.61 147.41 119.06 141.91 C 117.45 140.89 115.94 139.50 114.03 139.13 C 112.27 138.84 111.51 140.62 110.55 141.71 C 104.35 150.14 98.02 158.48 92.12 167.13 C 89.81 170.52 87.08 174.12 82.83 175.04 C 77.95 176.43 73.82 172.58 70.29 169.80 C 61.16 162.95 52.82 155.06 43.33 148.71 C 50.73 175.81 72.84 198.19 99.65 206.43 C 116.81 211.98 135.69 211.53 152.75 205.81 C 172.05 199.27 188.84 185.57 199.04 167.91 C 207.09 153.94 211.42 137.54 210.31 121.39 C 203.68 125.94 198.30 132.00 192.40 137.41 Z" />
</g>
<g id="#f36621ff">
<path fill="#f36621" opacity="1.00" d=" M 55.63 75.62 C 69.09 56.49 90.72 43.20 113.98 40.39 C 137.90 37.10 163.53 44.37 181.24 61.01 C 179.79 64.50 177.93 67.81 175.97 71.03 C 171.35 79.07 167.05 87.29 162.12 95.15 C 157.68 102.33 154.32 110.19 149.19 116.92 C 138.97 111.24 129.10 104.98 119.01 99.08 C 115.07 96.57 109.96 95.56 105.60 97.61 C 100.43 99.52 97.38 104.41 95.05 109.11 C 90.19 118.79 84.48 128.00 79.53 137.63 C 78.36 139.75 77.26 141.95 75.64 143.77 C 74.43 144.39 73.15 143.38 72.04 142.96 C 61.37 136.67 50.88 130.05 40.19 123.80 C 39.80 106.61 45.80 89.58 55.63 75.62 Z" />
<path fill="#f36621" opacity="1.00" d=" M 192.40 137.41 C 198.30 132.00 203.68 125.94 210.31 121.39 C 211.42 137.54 207.09 153.94 199.04 167.91 C 188.84 185.57 172.05 199.27 152.75 205.81 C 135.69 211.53 116.81 211.98 99.65 206.43 C 72.84 198.19 50.73 175.81 43.33 148.71 C 52.82 155.06 61.16 162.95 70.29 169.80 C 73.82 172.58 77.95 176.43 82.83 175.04 C 87.08 174.12 89.81 170.52 92.12 167.13 C 98.02 158.48 104.35 150.14 110.55 141.71 C 111.51 140.62 112.27 138.84 114.03 139.13 C 115.94 139.50 117.45 140.89 119.06 141.91 C 126.61 147.41 134.41 152.55 141.94 158.08 C 146.36 161.31 151.28 164.67 156.98 164.59 C 162.17 164.85 166.95 162.06 170.47 158.46 C 177.52 151.17 185.12 144.45 192.40 137.41 Z" />
</g>
</svg>

<?xml version="1.0" encoding="utf-8"?>
<!-- Generator: Adobe Illustrator 26.0.3, SVG Export Plug-In . SVG Version: 6.00 Build 0)  -->
<svg version="1.1" id="Layer_1" xmlns="http://www.w3.org/2000/svg" xmlns:xlink="http://www.w3.org/1999/xlink" x="0px" y="0px"
	 viewBox="0 0 250 250" style="enable-background:new 0 0 250 250;" xml:space="preserve">
<style type="text/css">
	.st0{fill:#FFFFFF;}
	.st1{fill:#F36621;}
</style>
<circle class="st0" cx="125" cy="125.5" r="125"/>
<g id="_x23_f36621ff">
	<path class="st1" d="M55.6,75.6C69.1,56.5,90.7,43.2,114,40.4c23.9-3.3,49.5,4,67.3,20.6c-1.5,3.5-3.3,6.8-5.3,10
		c-4.6,8-8.9,16.3-13.9,24.1c-4.4,7.2-7.8,15-12.9,21.8C139,111.2,129.1,105,119,99.1c-3.9-2.5-9.1-3.5-13.4-1.5
		c-5.2,1.9-8.2,6.8-10.5,11.5c-4.9,9.7-10.6,18.9-15.5,28.5c-1.2,2.1-2.3,4.3-3.9,6.1c-1.2,0.6-2.5-0.4-3.6-0.8
		c-10.7-6.3-21.2-12.9-31.9-19.2C39.8,106.6,45.8,89.6,55.6,75.6z"/>
	<path class="st1" d="M192.4,137.4c5.9-5.4,11.3-11.5,17.9-16c1.1,16.1-3.2,32.6-11.3,46.5c-10.2,17.7-27,31.4-46.3,37.9
		c-17.1,5.7-35.9,6.2-53.1,0.6c-26.8-8.2-48.9-30.6-56.3-57.7c9.5,6.3,17.8,14.2,27,21.1c3.5,2.8,7.7,6.6,12.5,5.2
		c4.2-0.9,7-4.5,9.3-7.9c5.9-8.7,12.2-17,18.4-25.4c1-1.1,1.7-2.9,3.5-2.6c1.9,0.4,3.4,1.8,5,2.8c7.6,5.5,15.4,10.6,22.9,16.2
		c4.4,3.2,9.3,6.6,15,6.5c5.2,0.3,10-2.5,13.5-6.1C177.5,151.2,185.1,144.4,192.4,137.4z"/>
</g>
</svg>
